X:1
T:Roscoe
C:Old-Time Fiddle Tune
L:1/8
M:4/4
I:linebreak $
K:G
V:1 treble
V:1
 ef |: "G" g2 d2 e(d B2) | (dB) A2 G3 (f | g)(fg)(f e)(f g2) |"D" a3 (^g a3) (f |$
 "G" g2) d2 e(d B2) |"C"  c3 (B c4) |"G"  (Bc)d(B"D" A)(G F2) |1"G" G3 (F G2) (ef) :|2"G" G3 F G2 ((3DEF |:$
 |:"G" G2) B2 (A B3) |"C"  c3 (B c4) |"G" (BA)G(B A)(G E2) |"D" D3 (E D2) ((3DEF |$
 "G" G2) B2 (A B3) | c3 (B c4) |  (Bc)d(B"D" A)(G F2) |1"G" G3 (F G2) (3DEF :|2"G" G8 |]
